!!!COM: Bach, Johann Sebastian
!!!CDT: 1685/3//-1750/7/28/
!!!OTL@@DE: Hilf, Herr Jesu, lass gelingen
!!!SCT: BWV 248
**kern	**kern	**kern	**kern
*M3/4	*M3/4	*M3/4	*M3/4
=1-	=1-	=1-	=1-
4F	4f	4a	4cc
4A	4c	4f	4a
4F	4c	4f	4a
=2	=2	=2	=2
4C	4c	4f	4g
4C	4c	4e	4g
4D	4A	4f	4f
=3	=3	=3	=3
4G	4B-	4d	4b-
4E-	4B-	4g	4cc
4F	4A	4f	4cc
=4	=4	=4	=4
4BB-	4c	4f	4dd
4D	4B-	4f	4dd
4BB-	4B-	4f	4dd
=5	=5	=5	=5
4F	4A	4f	4cc
4F	4A	4f	4cc
4F	4A	4f	4cc
=6	=6	=6	=6
4D	4f	4a	4dd
4G	4d	4g	4b-
4F	4d	4g	4b-
=7	=7	=7	=7
4E	4c	4g	4cc
4F	4A	4f	4cc
4D	4A	4f	4f
=8	=8	=8	=8
4D	4d	4f	4b-
4F	4c	4g	4a
4F	4c	4f	4a
=9	=9	=9	=9
*-	*-	*-	*-

